Numix-GalliumOS/22/status/audio-volume-muted-blocking-panel.svg

<?xml version="1.0" encoding="UTF-8" standalone="no"?>
<svg
   xmlns:dc="http://purl.org/dc/elements/1.1/"
   xmlns:cc="http://creativecommons.org/ns#"
   xmlns:rdf="http://www.w3.org/1999/02/22-rdf-syntax-ns#"
   xmlns:svg="http://www.w3.org/2000/svg"
   xmlns="http://www.w3.org/2000/svg"
   xmlns:sodipodi="http://sodipodi.sourceforge.net/DTD/sodipodi-0.dtd"
   xmlns:inkscape="http://www.inkscape.org/namespaces/inkscape"
   width="22"
   viewBox="0 0 22 22"
   height="22"
   id="svg2"
   version="1.1"
   inkscape:version="0.91 r"
   sodipodi:docname="audio-volume-muted-blocking.svg">
  <metadata
     id="metadata46">
    <rdf:RDF>
      <cc:Work
         rdf:about="">
        <dc:format>image/svg+xml</dc:format>
        <dc:type
           rdf:resource="http://purl.org/dc/dcmitype/StillImage" />
        <dc:title />
      </cc:Work>
    </rdf:RDF>
  </metadata>
  <sodipodi:namedview
     pagecolor="#ffffff"
     bordercolor="#666666"
     borderopacity="1"
     objecttolerance="10"
     gridtolerance="10"
     guidetolerance="10"
     inkscape:pageopacity="0"
     inkscape:pageshadow="2"
     inkscape:window-width="1280"
     inkscape:window-height="998"
     id="namedview44"
     showgrid="true"
     inkscape:zoom="15.944134"
     inkscape:cx="23.242859"
     inkscape:cy="8.373268"
     inkscape:window-x="0"
     inkscape:window-y="0"
     inkscape:window-maximized="1"
     inkscape:current-layer="svg2">
    <inkscape:grid
       type="xygrid"
       id="grid3023" />
  </sodipodi:namedview>
  <defs
     id="defs4" />
  <g
     id="g38"
     style="fill:#54cdee;fill-opacity:1">
    <path
       sodipodi:nodetypes="cccccccc"
       style="fill:#54cdee;fill-opacity:1"
       inkscape:connector-curvature="0"
       id="path40"
       d="m 8,5 -3.0026695,3 0,6 L 8,17 8,13 10,11 8,9 z" />
    <path
       sodipodi:nodetypes="ssssccs"
       style="fill:#54cdee;fill-opacity:1"
       inkscape:connector-curvature="0"
       id="path42"
       d="M 2,8 C 1.4769561,8 1.0008898,8.4981434 1.0008898,9 l 0,4 c 0,0.579702 0.432648,1 0.9991102,1 l 3.9964407,0 0,-6 z" />
  </g>
  <path
     style="opacity:1;color:#000000;fill:#54cdee;fill-opacity:1"
     inkscape:connector-curvature="0"
     d="M 12.492308,5.9999996 11,7.492308 14.507693,11 11,14.507692 12.492308,16 16,12.492308 19.507693,16 21,14.507692 17.492308,11 21,7.492308 19.507693,5.9999996 16,9.507691 z"
     id="path3085" />
</svg>

<svg xmlns="http://www.w3.org/2000/svg" viewBox="0 0 22 22">
 <g style="fill:#54cdee;fill-opacity:1">
  <path d="m 8 5 -3 3 0 6 l 3 3 0 -4 2 -2 -2 -2 z"/>
  <path d="m 2 8 c -0.523 0 -0.999 0.498 -0.999 1 l 0 4 c 0 0.58 0.433 1 0.999 1 l 3.996 0 0 -6 z"/>
 </g>
 <path d="m 12.492 6 -1.492 1.492 3.508 3.508 -3.508 3.508 1.492 1.492 3.508 -3.508 3.508 3.508 1.492 -1.492 -3.508 -3.508 3.508 -3.508 -1.492 -1.492 -3.508 3.508 z" style="fill:#54cdee;opacity:1;fill-opacity:1;color:#000"/>
</svg>
